public/cloud-icons/azure/application/application-service-process-explorer.svg

<?xml version="1.0" encoding="UTF-8" standalone="no"?>
<!-- Generated by Microsoft Visio, SVG Export Application Service Process Explorer.svg Page-1 -->

<svg
   xmlns:dc="http://purl.org/dc/elements/1.1/"
   xmlns:cc="http://creativecommons.org/ns#"
   xmlns:rdf="http://www.w3.org/1999/02/22-rdf-syntax-ns#"
   xmlns:svg="http://www.w3.org/2000/svg"
   xmlns="http://www.w3.org/2000/svg"
   xmlns:sodipodi="http://sodipodi.sourceforge.net/DTD/sodipodi-0.dtd"
   xmlns:inkscape="http://www.inkscape.org/namespaces/inkscape"
   width="56.689999"
   height="53.852001"
   viewBox="0 0 56.689998 53.852001"
   xml:space="preserve"
   class="st5"
   version="1.1"
   id="svg34"
   sodipodi:docname="Application Service Process Explorer.svg"
   style="font-size:12px;overflow:visible;color-interpolation-filters:sRGB;fill:none;fill-rule:evenodd;stroke-linecap:square;stroke-miterlimit:3"
   inkscape:version="0.92.5 (2060ec1f9f, 2020-04-08)"><metadata
   id="metadata40"><rdf:RDF><cc:Work
       rdf:about=""><dc:format>image/svg+xml</dc:format><dc:type
         rdf:resource="http://purl.org/dc/dcmitype/StillImage" /></cc:Work></rdf:RDF></metadata><defs
   id="defs38" /><sodipodi:namedview
   pagecolor="#ffffff"
   bordercolor="#666666"
   borderopacity="1"
   objecttolerance="10"
   gridtolerance="10"
   guidetolerance="10"
   inkscape:pageopacity="0"
   inkscape:pageshadow="2"
   inkscape:window-width="640"
   inkscape:window-height="480"
   id="namedview36"
   showgrid="false"
   inkscape:zoom="1.9364261"
   inkscape:cx="28.3465"
   inkscape:cy="26.9173"
   inkscape:window-x="0"
   inkscape:window-y="0"
   inkscape:window-maximized="0"
   inkscape:current-layer="svg34" />
	<style
   type="text/css"
   id="style2">
	<![CDATA[
		.st1 {fill:#1f56a3;stroke:none;stroke-linecap:butt;stroke-width:34}
		.st2 {fill:#1490df;stroke:none;stroke-linecap:butt;stroke-width:34}
		.st3 {fill:#ffffff;stroke:none;stroke-linecap:butt;stroke-width:34}
		.st4 {fill:#76bc2d;stroke:none;stroke-linecap:butt;stroke-width:34}
		.st5 {fill:none;fill-rule:evenodd;font-size:12px;overflow:visible;stroke-linecap:square;stroke-miterlimit:3}
	]]>
	</style>

	<g
   id="g32"
   transform="translate(-34,-34.0023)">
		<title
   id="title4">Page-1</title>
		<g
   id="group15468-1"
   transform="translate(34,-34.0157)">
			<title
   id="title6">Application Service Process Explorer.15468</title>
			<g
   id="group15469-2">
				<title
   id="title8"> MsPortalFx.base.images-41</title>
				<g
   id="shape15470-3"
   transform="translate(12.6961)">
					<title
   id="title10">Sheet.15470</title>
					<path
   d="m 28.32,118.92 c -6.58,-0.87 -6.47,-5.02 -6.44,-11.74 H 9.54 c 0.03,6.73 0.15,10.88 -6.44,11.74 A 3.35748,3.29127 -180 0 0 0,121.87 h 31.44 a 3.37638,3.30979 -180 0 0 -3.12,-2.95 z"
   class="st1"
   id="path12"
   inkscape:connector-curvature="0"
   style="fill:#1f56a3;stroke:none;stroke-width:34;stroke-linecap:butt" />
				</g>
				<g
   id="shape15471-5"
   transform="translate(0,-14.502)">
					<title
   id="title15">Sheet.15471</title>
					<path
   d="m 0,119.99 a 1.9213,1.88342 -180 0 0 1.92,1.88 h 52.85 a 1.9213,1.88342 -180 0 0 1.92,-1.88 V 84.4 A 1.9213,1.88342 -180 0 0 54.77,82.52 H 1.92 A 1.9213,1.88342 -180 0 0 0,84.4 Z"
   class="st2"
   id="path17"
   inkscape:connector-curvature="0"
   style="fill:#1490df;stroke:none;stroke-width:34;stroke-linecap:butt" />
				</g>
				<g
   id="shape15472-7"
   transform="translate(3.26614,-18.1576)">
					<title
   id="title20">Sheet.15472</title>
					<path
   d="m 0,120.93 a 0.960652,0.941708 -180 0 0 0.96063,0.94169 L 49.12,121.87 a 0.960652,0.941708 -180 0 0 0.96063,-0.94169 L 50.08,90.16 A 0.960652,0.941708 -180 0 0 49.11937,89.218314 L 0.96,89.22 a 0.960652,0.941708 -180 0 0 -0.96063,0.941686 z"
   class="st3"
   id="path22"
   inkscape:connector-curvature="0"
   style="fill:#ffffff;stroke:none;stroke-width:34;stroke-linecap:butt" />
				</g>
				<g
   id="shape15473-9"
   transform="translate(3.26614,-22.7491)">
					<title
   id="title25">Sheet.15473</title>
					<path
   d="m 34.78,104.28 a 0.48189,0.472387 -180 0 0 -0.409449,0.22848 L 31.44,109.36 a 0.472441,0.463124 0 0 1 -0.825197,-0.0185 L 26.13,100.96 a 0.475591,0.466212 -180 0 0 -0.869291,0.0679 L 21.05,113.29 a 0.475591,0.466212 0 0 1 -0.885039,0.034 L 16.52,105.05 a 0.472441,0.463124 -180 0 0 -0.850394,-0.0401 L 10.65,113.96 a 0.472441,0.463124 0 0 1 -0.415748,0.24082 L 0,114.21 v 2.95 h 12.02 a 0.472441,0.463124 -180 0 0 0.415748,-0.24083 L 15.34,111.74 a 0.475591,0.466212 0 0 1 0.850394,0.0401 L 20.51,121.59 a 0.472441,0.463124 -180 0 0 0.88189,-0.034 L 25.87,108.53 a 0.472441,0.463124 0 0 1 0.866142,-0.0679 L 30.46,115.41 a 0.475591,0.466212 -180 0 0 0.828346,0.0216 L 36.1,107.46 a 0.469291,0.460037 0 0 1 0.406299,-0.22848 L 50.1,107.23 v -2.95 z"
   class="st4"
   id="path27"
   inkscape:connector-curvature="0"
   style="fill:#76bc2d;stroke:none;stroke-width:34;stroke-linecap:butt" />
				</g>
			</g>
		</g>
	</g>
</svg>

<svg xmlns="http://www.w3.org/2000/svg" xml:space="preserve" width="56.69" height="53.852" style="font-size:12px;overflow:visible;color-interpolation-filters:sRGB;fill-rule:evenodd;stroke-linecap:square;stroke-miterlimit:3" viewBox="0 0 56.69 53.852"><g transform="translate(-34 -34.002)"><title>Page-1</title><g transform="translate(34 -34.016)"><title>Application Service Process Explorer.15468</title><title> MsPortalFx.base.images-41</title><g transform="translate(12.696)"><title>Sheet.15470</title><path d="M28.32 118.92c-6.58-.87-6.47-5.02-6.44-11.74H9.54c.03 6.73.15 10.88-6.44 11.74a3.357 3.291-180 0 0-3.1 2.95h31.44a3.376 3.31-180 0 0-3.12-2.95" style="fill:#1f56a3;stroke:none;stroke-width:34;stroke-linecap:butt"/></g><g transform="translate(0 -14.502)"><title>Sheet.15471</title><path d="M0 119.99a1.921 1.883-180 0 0 1.92 1.88h52.85a1.921 1.883-180 0 0 1.92-1.88V84.4a1.921 1.883-180 0 0-1.92-1.88H1.92A1.921 1.883-180 0 0 0 84.4Z" style="fill:#1490df;stroke:none;stroke-width:34;stroke-linecap:butt"/></g><g transform="translate(3.266 -18.158)"><title>Sheet.15472</title><path d="M0 120.93a.96.942-180 0 0 .96.942l48.16-.002a.96.942-180 0 0 .96-.942V90.16a.96.942-180 0 0-.96-.942L.96 89.22a.96.942-180 0 0-.96.942z" style="fill:#fff;stroke:none;stroke-width:34;stroke-linecap:butt"/></g><g transform="translate(3.266 -22.75)"><title>Sheet.15473</title><path d="M34.78 104.28a.482.472-180 0 0-.41.228l-2.93 4.852a.472.463 0 0 1-.825-.018l-4.485-8.382a.476.466-180 0 0-.87.068l-4.21 12.262a.476.466 0 0 1-.885.034l-3.645-8.274a.472.463-180 0 0-.85-.04l-5.02 8.95a.472.463 0 0 1-.416.24L0 114.21v2.95h12.02a.472.463-180 0 0 .416-.24l2.904-5.18a.476.466 0 0 1 .85.04l4.32 9.81a.472.463-180 0 0 .882-.034l4.478-13.026a.472.463 0 0 1 .866-.068l3.724 6.948a.476.466-180 0 0 .828.022l4.812-7.972a.47.46 0 0 1 .406-.228l13.594-.002v-2.95z" style="fill:#76bc2d;stroke:none;stroke-width:34;stroke-linecap:butt"/></g></g></g></svg>
